react/assets/icons/diamond.svg

<svg width="48" height="48" viewBox="0 0 24 24" fill="none" xmlns="http://www.w3.org/2000/svg" aria-labelledby="diamondIconTitle" stroke-linecap="square"><path d="M12 20l-9-9m9 9l9-9m-9 9l-4-9m4 9l4-9M3 11l4-6m-4 6h5M7 5l1 6M7 5h5m5 0l4 6m-4-6l-1 6m1-6h-5m9 6h-5m-8 0h8m-8 0l4-6m4 6l-4-6"/></svg>

<svg width="48px" height="48px" viewBox="0 0 24 24" fill="none" xmlns="http://www.w3.org/2000/svg" aria-labelledby="diamondIconTitle" stroke-linecap="square" stroke-linejoin="miter"> <title id="diamondIconTitle">Diamond</title> <path d="M12 20L3 11M12 20L21 11M12 20L8 11M12 20L16 11M3 11L7 5M3 11H8M7 5L8 11M7 5H12M17 5L21 11M17 5L16 11M17 5H12M21 11H16M8 11H16M8 11L12 5M16 11L12 5"/> </svg>
